src/img/scissors.svg

<svg xmlns="http://www.w3.org/2000/svg" viewBox="0 0 23 20"><path fill="#826550" d="M8 4a4 4 0 00-4-4 4 4 0 00-4 4 4 4 0 004 4 3 3 0 001.6-.4L8 10l-2.4 2.4A3 3 0 004 12c-2.2 0-4 1.8-4 4s1.8 4 4 4a4 4 0 004-4 3 3 0 00-.4-1.6L10 12l7 7h4L7.6 5.6c.3-.5.4-1 .4-1.6zM4 6a2 2 0 01-2-2c0-1.1.9-2 2-2a2 2 0 012 2 2 2 0 01-2 2zm0 12c-1.1 0-2-.9-2-2s.9-2 2-2 2 .9 2 2-.9 2-2 2zm6-8.5c.3 0 .5.2.5.5s-.2.5-.5.5-.5-.2-.5-.5.2-.5.5-.5zM21 1h-4l-6 6 2 2 8-8z"/></svg>

<?xml version="1.0" encoding="utf-8"?>
<!-- Generator: Adobe Illustrator 25.1.0, SVG Export Plug-In . SVG Version: 6.00 Build 0)  -->
<svg version="1.1" id="Layer_1" xmlns="http://www.w3.org/2000/svg" xmlns:xlink="http://www.w3.org/1999/xlink" x="0px" y="0px"
	 viewBox="0 0 23 20" style="enable-background:new 0 0 23 20;" xml:space="preserve">
	<path fill="#826550" id="Shape" d="M8,4c0-2.2-1.8-4-4-4C1.8,0,0,1.8,0,4c0,2.2,1.8,4,4,4c0.6,0,1.1-0.1,1.6-0.4L8,10l-2.4,2.4
				C5.1,12.1,4.6,12,4,12c-2.2,0-4,1.8-4,4s1.8,4,4,4c2.2,0,4-1.8,4-4c0-0.6-0.1-1.1-0.4-1.6L10,12l7,7h4L7.6,5.6C7.9,5.1,8,4.6,8,4
				L8,4z M4,6C2.9,6,2,5.1,2,4c0-1.1,0.9-2,2-2c1.1,0,2,0.9,2,2C6,5.1,5.1,6,4,6L4,6z M4,18c-1.1,0-2-0.9-2-2s0.9-2,2-2
				c1.1,0,2,0.9,2,2S5.1,18,4,18L4,18z M10,9.5c0.3,0,0.5,0.2,0.5,0.5s-0.2,0.5-0.5,0.5c-0.3,0-0.5-0.2-0.5-0.5S9.7,9.5,10,9.5
				L10,9.5z M21,1h-4l-6,6l2,2L21,1L21,1z"/>
</svg>
